Newaita-dark/apps/64/avidemux.svg

<?xml version="1.0" encoding="UTF-8"?>
<svg xmlns="http://www.w3.org/2000/svg" xmlns:xlink="http://www.w3.org/1999/xlink" width="64pt" height="64pt" viewBox="0 0 64 64" version="1.1">
<defs>
<linearGradient id="linear0" gradientUnits="userSpaceOnUse" x1="254" y1="233.5" x2="254" y2="254.666672" gradientTransform="matrix(0.125012,0,0,0.125012,-0.00000763012,26.877566)">
<stop offset="0" style="stop-color:rgb(0%,0%,0%);stop-opacity:0.27451;"/>
<stop offset="1" style="stop-color:rgb(0%,0%,0%);stop-opacity:0;"/>
</linearGradient>
<radialGradient id="radial0" gradientUnits="userSpaceOnUse" cx="450.908936" cy="189.579361" fx="450.908936" fy="189.579361" r="21.166656" gradientTransform="matrix(0.000000348341,-0.156265,-0.281277,-0.000000203077,106.907382,127.190661)">
<stop offset="0" style="stop-color:rgb(0%,0%,0%);stop-opacity:0.313725;"/>
<stop offset="0.222222" style="stop-color:rgb(0%,0%,0%);stop-opacity:0.27451;"/>
<stop offset="1" style="stop-color:rgb(0%,0%,0%);stop-opacity:0;"/>
</radialGradient>
<radialGradient id="radial1" gradientUnits="userSpaceOnUse" cx="450.908936" cy="189.579361" fx="450.908936" fy="189.579361" r="21.166656" gradientTransform="matrix(-0.000000348341,0.156265,0.281277,0.000000203077,-43.401323,-15.054962)">
<stop offset="0" style="stop-color:rgb(0%,0%,0%);stop-opacity:0.313725;"/>
<stop offset="0.222222" style="stop-color:rgb(0%,0%,0%);stop-opacity:0.27451;"/>
<stop offset="1" style="stop-color:rgb(0%,0%,0%);stop-opacity:0;"/>
</radialGradient>
<radialGradient id="radial2" gradientUnits="userSpaceOnUse" cx="450.908936" cy="189.579361" fx="450.908936" fy="189.579361" r="21.166656" gradientTransform="matrix(-0.000000348341,-0.156265,0.281277,-0.000000203077,-43.401323,127.190661)">
<stop offset="0" style="stop-color:rgb(0%,0%,0%);stop-opacity:0.313725;"/>
<stop offset="0.222222" style="stop-color:rgb(0%,0%,0%);stop-opacity:0.27451;"/>
<stop offset="1" style="stop-color:rgb(0%,0%,0%);stop-opacity:0;"/>
</radialGradient>
<radialGradient id="radial3" gradientUnits="userSpaceOnUse" cx="450.908936" cy="189.579361" fx="450.908936" fy="189.579361" r="21.166656" gradientTransform="matrix(0.000000348341,0.156265,-0.281277,0.000000203077,106.907378,-15.054963)">
<stop offset="0" style="stop-color:rgb(0%,0%,0%);stop-opacity:0.313725;"/>
<stop offset="0.222222" style="stop-color:rgb(0%,0%,0%);stop-opacity:0.27451;"/>
<stop offset="1" style="stop-color:rgb(0%,0%,0%);stop-opacity:0;"/>
</radialGradient>
<linearGradient id="linear1" gradientUnits="userSpaceOnUse" x1="306.916656" y1="-25.791676" x2="305.954559" y2="-135.329163" gradientTransform="matrix(0.150699,0,0,0.434824,-11.708026,67.282696)">
<stop offset="0" style="stop-color:rgb(74.117647%,74.117647%,74.117647%);stop-opacity:1;"/>
<stop offset="1" style="stop-color:rgb(87.843137%,87.843137%,87.843137%);stop-opacity:1;"/>
</linearGradient>
<linearGradient id="linear2" gradientUnits="userSpaceOnUse" x1="306.916656" y1="-25.791676" x2="305.954559" y2="-135.329163" gradientTransform="matrix(1.20548,0,0,3.478261,-93.655258,323.210175)">
<stop offset="0" style="stop-color:rgb(25.882353%,25.882353%,25.882353%);stop-opacity:1;"/>
<stop offset="1" style="stop-color:rgb(38.039216%,38.039216%,38.039216%);stop-opacity:1;"/>
</linearGradient>
<linearGradient id="linear3" gradientUnits="userSpaceOnUse" x1="254" y1="233.5" x2="254" y2="-147.5" gradientTransform="matrix(0.125012,0,0,-0.125012,9.261299,-2.062697)">
<stop offset="0" style="stop-color:rgb(74.117647%,74.117647%,74.117647%);stop-opacity:1;"/>
<stop offset="1" style="stop-color:rgb(87.843137%,87.843137%,87.843137%);stop-opacity:1;"/>
</linearGradient>
<linearGradient id="linear4" gradientUnits="userSpaceOnUse" x1="254" y1="233.5" x2="254" y2="-147.5" gradientTransform="matrix(0.125012,0,0,-0.125012,-38.368246,-2.062697)">
<stop offset="0" style="stop-color:rgb(74.117647%,74.117647%,74.117647%);stop-opacity:1;"/>
<stop offset="1" style="stop-color:rgb(87.843137%,87.843137%,87.843137%);stop-opacity:1;"/>
</linearGradient>
<linearGradient id="linear5" gradientUnits="userSpaceOnUse" x1="254" y1="233.5" x2="254" y2="-147.5" gradientTransform="matrix(0.125012,0,0,-0.125012,9.261299,-2.062697)">
<stop offset="0" style="stop-color:rgb(74.117647%,74.117647%,74.117647%);stop-opacity:1;"/>
<stop offset="1" style="stop-color:rgb(87.843137%,87.843137%,87.843137%);stop-opacity:1;"/>
</linearGradient>
<linearGradient id="linear6" gradientUnits="userSpaceOnUse" x1="254" y1="233.5" x2="254" y2="-147.5" gradientTransform="matrix(0.125012,0,0,-0.125012,9.261298,-2.062696)">
<stop offset="0" style="stop-color:rgb(74.117647%,74.117647%,74.117647%);stop-opacity:1;"/>
<stop offset="1" style="stop-color:rgb(87.843137%,87.843137%,87.843137%);stop-opacity:1;"/>
</linearGradient>
<linearGradient id="linear7" gradientUnits="userSpaceOnUse" x1="254" y1="233.5" x2="254" y2="-147.5" gradientTransform="matrix(0.125012,0,0,0.104177,0,25.1274)">
<stop offset="0" style="stop-color:rgb(25.882353%,25.882353%,25.882353%);stop-opacity:1;"/>
<stop offset="1" style="stop-color:rgb(38.039216%,38.039216%,38.039216%);stop-opacity:1;"/>
</linearGradient>
<linearGradient id="linear8" gradientUnits="userSpaceOnUse" x1="254" y1="233.5" x2="254" y2="-147.5" gradientTransform="matrix(0.125012,0,0,0.125012,9.261299,34.815824)">
<stop offset="0" style="stop-color:rgb(74.117647%,74.117647%,74.117647%);stop-opacity:1;"/>
<stop offset="1" style="stop-color:rgb(87.843137%,87.843137%,87.843137%);stop-opacity:1;"/>
</linearGradient>
<linearGradient id="linear9" gradientUnits="userSpaceOnUse" x1="254" y1="233.5" x2="254" y2="-147.5" gradientTransform="matrix(0.125012,0,0,0.125012,-38.368246,34.815824)">
<stop offset="0" style="stop-color:rgb(74.117647%,74.117647%,74.117647%);stop-opacity:1;"/>
<stop offset="1" style="stop-color:rgb(87.843137%,87.843137%,87.843137%);stop-opacity:1;"/>
</linearGradient>
<linearGradient id="linear10" gradientUnits="userSpaceOnUse" x1="254" y1="233.5" x2="254" y2="-147.5" gradientTransform="matrix(0.125012,0,0,0.125012,9.261299,34.815824)">
<stop offset="0" style="stop-color:rgb(74.117647%,74.117647%,74.117647%);stop-opacity:1;"/>
<stop offset="1" style="stop-color:rgb(87.843137%,87.843137%,87.843137%);stop-opacity:1;"/>
</linearGradient>
<linearGradient id="linear11" gradientUnits="userSpaceOnUse" x1="254" y1="233.5" x2="254" y2="-147.5" gradientTransform="matrix(0.125012,0,0,0.125012,9.261298,34.815821)">
<stop offset="0" style="stop-color:rgb(74.117647%,74.117647%,74.117647%);stop-opacity:1;"/>
<stop offset="1" style="stop-color:rgb(87.843137%,87.843137%,87.843137%);stop-opacity:1;"/>
</linearGradient>
<linearGradient id="linear12" gradientUnits="userSpaceOnUse" x1="306.916656" y1="-25.791676" x2="305.954559" y2="-135.329163" gradientTransform="matrix(0.150699,0,0,0.434824,-11.708026,67.282692)">
<stop offset="0" style="stop-color:rgb(25.882353%,25.882353%,25.882353%);stop-opacity:1;"/>
<stop offset="1" style="stop-color:rgb(38.039216%,38.039216%,38.039216%);stop-opacity:1;"/>
</linearGradient>
<linearGradient id="linear13" gradientUnits="userSpaceOnUse" x1="68.791664" y1="-62.833332" x2="68.791664" y2="-105.166649" >
<stop offset="0" style="stop-color:rgb(74.117647%,74.117647%,74.117647%);stop-opacity:1;"/>
<stop offset="1" style="stop-color:rgb(87.843137%,87.843137%,87.843137%);stop-opacity:1;"/>
</linearGradient>
</defs>
<g id="surface1">
<path style=" stroke:none;fill-rule:nonzero;fill:url(#linear0);" d="M 9.261719 56.066406 L 54.246094 56.066406 L 54.246094 58.714844 L 9.261719 58.714844 Z M 9.261719 56.066406 "/>
<path style=" stroke:none;fill-rule:nonzero;fill:url(#radial0);" d="M 54.246094 56.066406 L 59.535156 56.066406 L 59.535156 53.421875 L 54.246094 53.421875 Z M 54.246094 56.066406 "/>
<path style=" stroke:none;fill-rule:nonzero;fill:url(#radial1);" d="M 9.261719 56.066406 L 3.96875 56.066406 L 3.96875 58.714844 L 9.261719 58.714844 Z M 9.261719 56.066406 "/>
<path style=" stroke:none;fill-rule:nonzero;fill:url(#radial2);" d="M 9.261719 56.066406 L 3.96875 56.066406 L 3.96875 53.421875 L 9.261719 53.421875 Z M 9.261719 56.066406 "/>
<path style=" stroke:none;fill-rule:nonzero;fill:url(#radial3);" d="M 54.246094 56.066406 L 59.535156 56.066406 L 59.535156 58.714844 L 54.246094 58.714844 Z M 54.246094 56.066406 "/>
<path style=" stroke:none;fill-rule:nonzero;fill:url(#linear1);" d="M 6.613281 8.4375 L 56.890625 8.4375 C 58.351562 8.4375 59.535156 9.621094 59.535156 11.085938 L 59.535156 53.421875 C 59.535156 54.882812 58.351562 56.066406 56.890625 56.066406 L 6.613281 56.066406 C 5.152344 56.066406 3.96875 54.882812 3.96875 53.421875 L 3.96875 11.085938 C 3.96875 9.621094 5.152344 8.4375 6.613281 8.4375 Z M 6.613281 8.4375 "/>
<path style=" stroke:none;fill-rule:nonzero;fill:rgb(0%,0%,0%);fill-opacity:0.235294;" d="M 6.613281 56.09375 C 5.148438 56.09375 3.96875 54.914062 3.96875 53.449219 L 3.96875 52.761719 C 3.96875 54.226562 5.148438 55.40625 6.613281 55.40625 L 56.890625 55.40625 C 58.355469 55.40625 59.535156 54.226562 59.535156 52.761719 L 59.535156 53.449219 C 59.535156 54.914062 58.355469 56.09375 56.890625 56.09375 Z M 6.613281 56.09375 "/>
<path style="fill-rule:nonzero;fill:url(#linear2);stroke-width:3;stroke-linecap:round;stroke-linejoin:miter;stroke:rgb(12.941177%,12.941177%,12.941177%);stroke-opacity:1;stroke-miterlimit:4;" d="M 52.901198 -147.506445 C 41.183567 -147.506445 31.746968 -138.069846 31.746968 -126.320968 L 31.746968 -84.012509 L 476.235772 -84.012509 L 476.235772 -126.320968 C 476.235772 -138.069846 466.799173 -147.506445 455.081542 -147.506445 Z M 52.901198 -147.506445 " transform="matrix(0.125012,0,0,0.125012,0,26.877566)"/>
<path style=" stroke:none;fill-rule:evenodd;fill:url(#linear3);" d="M 21.167969 16.375 L 26.460938 8.4375 L 34.398438 8.4375 L 29.105469 16.375 Z M 21.167969 16.375 "/>
<path style=" stroke:none;fill-rule:evenodd;fill:url(#linear4);" d="M 5.292969 16.375 L 10.585938 8.4375 L 18.523438 8.4375 L 13.230469 16.375 Z M 5.292969 16.375 "/>
<path style=" stroke:none;fill-rule:evenodd;fill:url(#linear5);" d="M 37.046875 16.375 L 42.335938 8.4375 L 50.277344 8.4375 L 44.984375 16.375 Z M 37.046875 16.375 "/>
<path style=" stroke:none;fill-rule:evenodd;fill:url(#linear6);" d="M 58.039062 8.699219 L 52.921875 16.375 L 59.535156 16.375 L 59.535156 11.085938 C 59.535156 10.03125 58.925781 9.125 58.039062 8.699219 Z M 58.039062 8.699219 "/>
<path style=" stroke:none;fill-rule:nonzero;fill:rgb(100%,100%,100%);fill-opacity:0.392157;" d="M 6.613281 8.589844 C 5.148438 8.589844 3.96875 9.769531 3.96875 11.238281 L 3.96875 11.925781 C 3.96875 10.457031 5.148438 9.277344 6.613281 9.277344 L 56.890625 9.277344 C 58.355469 9.277344 59.535156 10.457031 59.535156 11.925781 L 59.535156 11.238281 C 59.535156 9.769531 58.355469 8.589844 56.890625 8.589844 Z M 6.613281 8.589844 "/>
<path style=" stroke:none;fill-rule:nonzero;fill:rgb(0%,0%,0%);fill-opacity:0.235294;" d="M 11.246094 15.714844 L 59.535156 15.714844 L 59.535156 16.375 L 11.246094 16.375 Z M 11.246094 15.714844 "/>
<path style=" stroke:none;fill-rule:nonzero;fill:rgb(12.941177%,12.941177%,12.941177%);fill-opacity:1;" d="M 6.613281 8.25 C 5.046875 8.25 3.78125 9.519531 3.78125 11.085938 L 3.78125 53.421875 C 3.78125 54.988281 5.046875 56.253906 6.613281 56.253906 L 56.890625 56.253906 C 58.457031 56.253906 59.722656 54.988281 59.722656 53.421875 L 59.722656 11.085938 C 59.722656 9.519531 58.457031 8.25 56.890625 8.25 Z M 6.613281 8.625 L 56.890625 8.625 C 58.257812 8.625 59.347656 9.71875 59.347656 11.085938 L 59.347656 53.421875 C 59.347656 54.789062 58.257812 55.878906 56.890625 55.878906 L 6.613281 55.878906 C 5.25 55.878906 4.15625 54.789062 4.15625 53.421875 L 4.15625 11.085938 C 4.15625 9.71875 5.25 8.625 6.613281 8.625 Z M 6.613281 8.625 "/>
<path style=" stroke:none;fill-rule:nonzero;fill:url(#linear7);" d="M 3.96875 16.375 L 59.535156 16.375 L 59.535156 22.992188 L 3.96875 22.992188 Z M 3.96875 16.375 "/>
<path style=" stroke:none;fill-rule:evenodd;fill:url(#linear8);" d="M 21.167969 16.375 L 26.460938 24.316406 L 34.398438 24.316406 L 29.105469 16.375 Z M 21.167969 16.375 "/>
<path style=" stroke:none;fill-rule:evenodd;fill:url(#linear9);" d="M 5.292969 16.375 L 10.585938 24.316406 L 18.523438 24.316406 L 13.230469 16.375 Z M 5.292969 16.375 "/>
<path style=" stroke:none;fill-rule:evenodd;fill:url(#linear10);" d="M 37.046875 16.375 L 42.335938 24.316406 L 50.277344 24.316406 L 44.984375 16.375 Z M 37.046875 16.375 "/>
<path style=" stroke:none;fill-rule:evenodd;fill:url(#linear11);" d="M 52.921875 16.375 L 58.214844 24.316406 L 59.535156 24.316406 L 59.535156 16.375 Z M 52.921875 16.375 "/>
<path style=" stroke:none;fill-rule:nonzero;fill:rgb(100%,100%,100%);fill-opacity:0.392157;" d="M 11.246094 16.375 L 59.535156 16.375 L 59.535156 17.039062 L 11.246094 17.039062 Z M 11.246094 16.375 "/>
<path style="fill:none;stroke-width:3;stroke-linecap:round;stroke-linejoin:round;stroke:rgb(12.941177%,12.941177%,12.941177%);stroke-opacity:1;stroke-miterlimit:4;" d="M 31.746968 -84.012509 L 476.235772 -84.012509 L 476.235772 -31.080063 L 31.746968 -31.080063 Z M 31.746968 -84.012509 " transform="matrix(0.125012,0,0,0.125012,0,26.877566)"/>
<path style=" stroke:none;fill-rule:nonzero;fill:url(#linear12);" d="M 8.539062 11.746094 C 6.007812 11.746094 3.96875 13.8125 3.96875 16.375 L 3.96875 53.421875 C 3.96875 54.886719 5.148438 56.066406 6.613281 56.066406 L 56.890625 56.066406 C 58.355469 56.066406 59.535156 54.886719 59.535156 53.421875 L 59.535156 22.992188 L 13.230469 22.992188 L 13.230469 16.375 C 13.230469 13.8125 11.191406 11.746094 8.660156 11.746094 Z M 8.539062 11.746094 "/>
<path style="fill-rule:nonzero;fill:url(#linear13);stroke-width:3;stroke-linecap:round;stroke-linejoin:round;stroke:rgb(12.941177%,12.941177%,12.941177%);stroke-opacity:1;stroke-miterlimit:4;" d="M 68.805929 -105.166739 C 80.492313 -105.166739 89.960159 -95.698893 89.960159 -84.012509 C 89.960159 -72.294878 80.492313 -62.827032 68.805929 -62.827032 C 57.088298 -62.827032 47.620452 -72.294878 47.620452 -84.012509 C 47.620452 -95.698893 57.088298 -105.166739 68.805929 -105.166739 Z M 68.805929 -105.166739 " transform="matrix(0.125012,0,0,0.125012,0,26.877566)"/>
<path style=" stroke:none;fill-rule:nonzero;fill:rgb(100%,100%,100%);fill-opacity:0.392157;" d="M 8.539062 11.582031 C 6.007812 11.582031 3.96875 13.644531 3.96875 16.210938 L 3.96875 17.039062 C 3.96875 14.472656 6.007812 12.40625 8.539062 12.40625 L 8.660156 12.40625 C 11.191406 12.40625 13.230469 14.472656 13.230469 17.039062 L 13.230469 16.210938 C 13.230469 13.644531 11.191406 11.582031 8.660156 11.582031 Z M 13.230469 22.828125 L 13.230469 23.652344 L 59.535156 23.652344 L 59.535156 22.828125 Z M 13.230469 22.828125 "/>
<path style=" stroke:none;fill-rule:nonzero;fill:rgb(12.941177%,12.941177%,12.941177%);fill-opacity:1;" d="M 8.539062 11.558594 C 5.90625 11.558594 3.78125 13.710938 3.78125 16.375 L 3.78125 53.421875 C 3.78125 54.988281 5.046875 56.253906 6.613281 56.253906 L 56.890625 56.253906 C 58.457031 56.253906 59.722656 54.988281 59.722656 53.421875 L 59.722656 22.804688 L 13.417969 22.804688 L 13.417969 16.375 C 13.417969 13.710938 11.292969 11.558594 8.660156 11.558594 Z M 8.539062 11.933594 L 8.660156 11.933594 C 11.089844 11.933594 13.042969 13.910156 13.042969 16.375 L 13.042969 23.179688 L 59.347656 23.179688 L 59.347656 53.421875 C 59.347656 54.785156 58.257812 55.878906 56.890625 55.878906 L 6.613281 55.878906 C 5.25 55.878906 4.15625 54.785156 4.15625 53.421875 L 4.15625 16.375 C 4.15625 13.910156 6.109375 11.933594 8.539062 11.933594 Z M 8.539062 11.933594 "/>
</g>
</svg>

<svg xmlns="http://www.w3.org/2000/svg" width="64pt" height="64pt" viewBox="0 0 64 64"><defs><linearGradient id="a" gradientUnits="userSpaceOnUse" x1="254" y1="233.5" x2="254" y2="254.667" gradientTransform="translate(0 26.878) scale(.12501)"><stop offset="0" stop-opacity=".275"/><stop offset="1" stop-opacity="0"/></linearGradient><radialGradient id="b" gradientUnits="userSpaceOnUse" cx="450.909" cy="189.579" fx="450.909" fy="189.579" r="21.167" gradientTransform="matrix(0 -.15626 -.28128 0 106.907 127.19)"><stop offset="0" stop-opacity=".314"/><stop offset=".222" stop-opacity=".275"/><stop offset="1" stop-opacity="0"/></radialGradient><radialGradient id="c" gradientUnits="userSpaceOnUse" cx="450.909" cy="189.579" fx="450.909" fy="189.579" r="21.167" gradientTransform="matrix(0 .15626 .28128 0 -43.401 -15.055)"><stop offset="0" stop-opacity=".314"/><stop offset=".222" stop-opacity=".275"/><stop offset="1" stop-opacity="0"/></radialGradient><radialGradient id="d" gradientUnits="userSpaceOnUse" cx="450.909" cy="189.579" fx="450.909" fy="189.579" r="21.167" gradientTransform="matrix(0 -.15626 .28128 0 -43.401 127.19)"><stop offset="0" stop-opacity=".314"/><stop offset=".222" stop-opacity=".275"/><stop offset="1" stop-opacity="0"/></radialGradient><radialGradient id="e" gradientUnits="userSpaceOnUse" cx="450.909" cy="189.579" fx="450.909" fy="189.579" r="21.167" gradientTransform="matrix(0 .15626 -.28128 0 106.907 -15.055)"><stop offset="0" stop-opacity=".314"/><stop offset=".222" stop-opacity=".275"/><stop offset="1" stop-opacity="0"/></radialGradient><linearGradient id="f" gradientUnits="userSpaceOnUse" x1="306.917" y1="-25.792" x2="305.955" y2="-135.329" gradientTransform="matrix(.1507 0 0 .43482 -11.708 67.283)"><stop offset="0" stop-color="#bdbdbd"/><stop offset="1" stop-color="#e0e0e0"/></linearGradient><linearGradient id="g" gradientUnits="userSpaceOnUse" x1="306.917" y1="-25.792" x2="305.955" y2="-135.329" gradientTransform="matrix(1.20548 0 0 3.47826 -93.655 323.21)"><stop offset="0" stop-color="#424242"/><stop offset="1" stop-color="#616161"/></linearGradient><linearGradient id="h" gradientUnits="userSpaceOnUse" x1="254" y1="233.5" x2="254" y2="-147.5" gradientTransform="matrix(.12501 0 0 -.12501 9.261 -2.063)"><stop offset="0" stop-color="#bdbdbd"/><stop offset="1" stop-color="#e0e0e0"/></linearGradient><linearGradient id="i" gradientUnits="userSpaceOnUse" x1="254" y1="233.5" x2="254" y2="-147.5" gradientTransform="matrix(.12501 0 0 -.12501 -38.368 -2.063)"><stop offset="0" stop-color="#bdbdbd"/><stop offset="1" stop-color="#e0e0e0"/></linearGradient><linearGradient id="j" gradientUnits="userSpaceOnUse" x1="254" y1="233.5" x2="254" y2="-147.5" gradientTransform="matrix(.12501 0 0 -.12501 9.261 -2.063)"><stop offset="0" stop-color="#bdbdbd"/><stop offset="1" stop-color="#e0e0e0"/></linearGradient><linearGradient id="k" gradientUnits="userSpaceOnUse" x1="254" y1="233.5" x2="254" y2="-147.5" gradientTransform="matrix(.12501 0 0 -.12501 9.261 -2.063)"><stop offset="0" stop-color="#bdbdbd"/><stop offset="1" stop-color="#e0e0e0"/></linearGradient><linearGradient id="l" gradientUnits="userSpaceOnUse" x1="254" y1="233.5" x2="254" y2="-147.5" gradientTransform="matrix(.12501 0 0 .10418 0 25.127)"><stop offset="0" stop-color="#424242"/><stop offset="1" stop-color="#616161"/></linearGradient><linearGradient id="m" gradientUnits="userSpaceOnUse" x1="254" y1="233.5" x2="254" y2="-147.5" gradientTransform="translate(9.261 34.816) scale(.12501)"><stop offset="0" stop-color="#bdbdbd"/><stop offset="1" stop-color="#e0e0e0"/></linearGradient><linearGradient id="n" gradientUnits="userSpaceOnUse" x1="254" y1="233.5" x2="254" y2="-147.5" gradientTransform="translate(-38.368 34.816) scale(.12501)"><stop offset="0" stop-color="#bdbdbd"/><stop offset="1" stop-color="#e0e0e0"/></linearGradient><linearGradient id="o" gradientUnits="userSpaceOnUse" x1="254" y1="233.5" x2="254" y2="-147.5" gradientTransform="translate(9.261 34.816) scale(.12501)"><stop offset="0" stop-color="#bdbdbd"/><stop offset="1" stop-color="#e0e0e0"/></linearGradient><linearGradient id="p" gradientUnits="userSpaceOnUse" x1="254" y1="233.5" x2="254" y2="-147.5" gradientTransform="translate(9.261 34.816) scale(.12501)"><stop offset="0" stop-color="#bdbdbd"/><stop offset="1" stop-color="#e0e0e0"/></linearGradient><linearGradient id="q" gradientUnits="userSpaceOnUse" x1="306.917" y1="-25.792" x2="305.955" y2="-135.329" gradientTransform="matrix(.1507 0 0 .43482 -11.708 67.283)"><stop offset="0" stop-color="#424242"/><stop offset="1" stop-color="#616161"/></linearGradient><linearGradient id="r" gradientUnits="userSpaceOnUse" x1="68.792" y1="-62.833" x2="68.792" y2="-105.167"><stop offset="0" stop-color="#bdbdbd"/><stop offset="1" stop-color="#e0e0e0"/></linearGradient></defs><path d="M9.262 56.066h44.984v2.649H9.262zm0 0" fill="url(#a)"/><path d="M54.246 56.066h5.29v-2.644h-5.29zm0 0" fill="url(#b)"/><path d="M9.262 56.066H3.969v2.649h5.293zm0 0" fill="url(#c)"/><path d="M9.262 56.066H3.969v-2.644h5.293zm0 0" fill="url(#d)"/><path d="M54.246 56.066h5.29v2.649h-5.29zm0 0" fill="url(#e)"/><path d="M6.613 8.438h50.278a2.645 2.645 0 0 1 2.644 2.648v42.336a2.644 2.644 0 0 1-2.644 2.644H6.613a2.644 2.644 0 0 1-2.644-2.644V11.086a2.645 2.645 0 0 1 2.644-2.649zm0 0" fill="url(#f)"/><path d="M6.613 56.094a2.639 2.639 0 0 1-2.644-2.645v-.687a2.639 2.639 0 0 0 2.644 2.644h50.278a2.639 2.639 0 0 0 2.644-2.644v.687a2.639 2.639 0 0 1-2.644 2.645zm0 0" fill-opacity=".235"/><path d="M52.901-147.506c-11.717 0-21.154 9.436-21.154 21.185v42.308h444.489v-42.308c0-11.749-9.437-21.185-21.154-21.185zm0 0" transform="translate(0 26.878) scale(.12501)" fill="url(#g)" stroke-width="3" stroke-linecap="round" stroke="#212121"/><path d="M21.168 16.375l5.293-7.938h7.937l-5.293 7.938zm0 0" fill-rule="evenodd" fill="url(#h)"/><path d="M5.293 16.375l5.293-7.938h7.937l-5.293 7.938zm0 0" fill-rule="evenodd" fill="url(#i)"/><path d="M37.047 16.375l5.289-7.938h7.941l-5.293 7.938zm0 0" fill-rule="evenodd" fill="url(#j)"/><path d="M58.04 8.7l-5.118 7.675h6.613v-5.29A2.64 2.64 0 0 0 58.04 8.7zm0 0" fill-rule="evenodd" fill="url(#k)"/><path d="M6.613 8.59a2.64 2.64 0 0 0-2.644 2.648v.688a2.64 2.64 0 0 1 2.644-2.649h50.278a2.64 2.64 0 0 1 2.644 2.649v-.688a2.64 2.64 0 0 0-2.644-2.648zm0 0" fill="#fff" fill-opacity=".392"/><path d="M11.246 15.715h48.29v.66h-48.29zm0 0" fill-opacity=".235"/><path d="M6.613 8.25a2.832 2.832 0 0 0-2.832 2.836v42.336a2.83 2.83 0 0 0 2.832 2.832h50.278a2.83 2.83 0 0 0 2.832-2.832V11.086A2.832 2.832 0 0 0 56.89 8.25zm0 .375h50.278a2.447 2.447 0 0 1 2.457 2.46v42.337a2.444 2.444 0 0 1-2.457 2.457H6.613a2.447 2.447 0 0 1-2.457-2.457V11.086a2.45 2.45 0 0 1 2.457-2.461zm0 0" fill="#212121"/><path d="M3.969 16.375h55.566v6.617H3.97zm0 0" fill="url(#l)"/><path d="M21.168 16.375l5.293 7.941h7.937l-5.293-7.941zm0 0" fill-rule="evenodd" fill="url(#m)"/><path d="M5.293 16.375l5.293 7.941h7.937l-5.293-7.941zm0 0" fill-rule="evenodd" fill="url(#n)"/><path d="M37.047 16.375l5.289 7.941h7.941l-5.293-7.941zm0 0" fill-rule="evenodd" fill="url(#o)"/><path d="M52.922 16.375l5.293 7.941h1.32v-7.941zm0 0" fill-rule="evenodd" fill="url(#p)"/><path d="M11.246 16.375h48.29v.664h-48.29zm0 0" fill="#fff" fill-opacity=".392"/><path d="M3.969 16.375h55.566v6.617H3.97zm0 0" fill="none" stroke-width=".37503000000000003" stroke-linecap="round" stroke-linejoin="round" stroke="#212121"/><path d="M8.54 11.746c-2.532 0-4.571 2.066-4.571 4.629v37.047a2.639 2.639 0 0 0 2.644 2.644h50.278a2.639 2.639 0 0 0 2.644-2.644v-30.43H13.23v-6.617c0-2.563-2.039-4.629-4.57-4.629zm0 0" fill="url(#q)"/><path d="M68.806-105.167c11.686 0 21.154 9.468 21.154 21.154 0 11.718-9.468 21.186-21.154 21.186-11.718 0-21.186-9.468-21.186-21.186 0-11.686 9.468-21.154 21.186-21.154zm0 0" transform="translate(0 26.878) scale(.12501)" fill="url(#r)" stroke-width="3" stroke-linecap="round" stroke-linejoin="round" stroke="#212121"/><path d="M8.54 11.582c-2.532 0-4.571 2.063-4.571 4.629v.828c0-2.566 2.039-4.633 4.57-4.633h.121c2.531 0 4.57 2.067 4.57 4.633v-.828c0-2.566-2.039-4.629-4.57-4.629zm4.69 11.246v.824h46.305v-.824zm0 0" fill="#fff" fill-opacity=".392"/><path d="M8.54 11.559c-2.634 0-4.759 2.152-4.759 4.816v37.047a2.83 2.83 0 0 0 2.832 2.832h50.278a2.83 2.83 0 0 0 2.832-2.832V22.805H13.418v-6.43c0-2.664-2.125-4.816-4.758-4.816zm0 .375h.12c2.43 0 4.383 1.976 4.383 4.441v6.805h46.305v30.242a2.447 2.447 0 0 1-2.457 2.457H6.613a2.449 2.449 0 0 1-2.457-2.457V16.375c0-2.465 1.953-4.441 4.383-4.441zm0 0" fill="#212121"/></svg>
